src/assets/img/icons/lineal/password.svg

<svg xmlns="http://www.w3.org/2000/svg" viewBox="0 0 512 327.29"><path class="lineal-stroke" d="M191.35 327.29H39.94A40 40 0 010 287.35V131.09a40 40 0 0139.94-39.94h151.41a40 40 0 0139.94 39.94V243a13.8 13.8 0 01-27.59 0V131.09a12.36 12.36 0 00-12.35-12.35H39.94a12.36 12.36 0 00-12.35 12.35v156.26a12.36 12.36 0 0012.35 12.35h151.41a13.8 13.8 0 010 27.59z"/><path class="lineal-fill" d="M216.95 125.37H498.2v133.06H216.95z"/><path class="lineal-stroke" d="M498.2 272.22H217a13.8 13.8 0 01-13.8-13.8V125.36a13.79 13.79 0 0113.8-13.79h281.2a13.79 13.79 0 0113.8 13.79v133.06a13.8 13.8 0 01-13.8 13.8zm-267.45-27.59h253.66V139.16H230.75zM187.49 111a13.79 13.79 0 01-13.79-13.8V85.64a58.06 58.06 0 00-116.11 0v11.53a13.8 13.8 0 11-27.59 0V85.64a85.65 85.65 0 01171.29 0v11.53a13.8 13.8 0 01-13.8 13.83z"/><path class="lineal-stroke" d="M289.49 205.69H270a13.8 13.8 0 110-27.59h19.45a13.8 13.8 0 110 27.59zm77.82 0h-19.46a13.8 13.8 0 010-27.59h19.46a13.8 13.8 0 010 27.59zm77.81 0h-19.45a13.8 13.8 0 010-27.59h19.45a13.8 13.8 0 110 27.59z"/><circle class="lineal-fill" cx="115.65" cy="207.07" r="33.11"/><path class="lineal-stroke" d="M115.64 254a46.91 46.91 0 1146.91-46.91A47 47 0 01115.64 254zm0-66.22A19.31 19.31 0 10135 207.07a19.33 19.33 0 00-19.36-19.31z"/></svg>

<svg xmlns="http://www.w3.org/2000/svg" viewBox="0 0 512 327.29"><path class="lineal-stroke" d="M191.35,327.29H39.94A40,40,0,0,1,0,287.35V131.09A40,40,0,0,1,39.94,91.15H191.35a40,40,0,0,1,39.94,39.94V243a13.8,13.8,0,0,1-27.59,0V131.09a12.36,12.36,0,0,0-12.35-12.35H39.94a12.36,12.36,0,0,0-12.35,12.35V287.35A12.36,12.36,0,0,0,39.94,299.7H191.35a13.8,13.8,0,0,1,0,27.59Z"/><rect class="lineal-fill" x="216.95" y="125.37" width="281.25" height="133.06"/><path class="lineal-stroke" d="M498.2,272.22H217a13.8,13.8,0,0,1-13.8-13.8V125.36A13.79,13.79,0,0,1,217,111.57H498.2A13.79,13.79,0,0,1,512,125.36V258.42A13.8,13.8,0,0,1,498.2,272.22ZM230.75,244.63H484.41V139.16H230.75Z"/><path class="lineal-stroke" d="M187.49,111a13.79,13.79,0,0,1-13.79-13.8V85.64a58.06,58.06,0,0,0-116.11,0V97.17a13.8,13.8,0,1,1-27.59,0V85.64a85.65,85.65,0,0,1,171.29,0V97.17A13.8,13.8,0,0,1,187.49,111Z"/><path class="lineal-stroke" d="M289.49,205.69H270a13.8,13.8,0,1,1,0-27.59h19.45a13.8,13.8,0,1,1,0,27.59Z"/><path class="lineal-stroke" d="M367.31,205.69H347.85a13.8,13.8,0,0,1,0-27.59h19.46a13.8,13.8,0,0,1,0,27.59Z"/><path class="lineal-stroke" d="M445.12,205.69H425.67a13.8,13.8,0,0,1,0-27.59h19.45a13.8,13.8,0,1,1,0,27.59Z"/><circle class="lineal-fill" cx="115.65" cy="207.07" r="33.11"/><path class="lineal-stroke" d="M115.64,254a46.91,46.91,0,1,1,46.91-46.91A47,47,0,0,1,115.64,254Zm0-66.22A19.31,19.31,0,1,0,135,207.07,19.33,19.33,0,0,0,115.64,187.76Z"/></svg>
